src/lib/packages/icons/src/assets/line/inbox-upload.svg

<svg width="24" height="24" viewBox="0 0 24 24" fill="none" xmlns="http://www.w3.org/2000/svg">
<path d="M21.689 13.009C21.689 13.006 21.6909 13.003 21.6909 13C21.6909 12.991 21.686 12.984 21.686 12.975C21.674 12.904 21.6601 12.833 21.6431 12.762C21.6351 12.738 21.6311 12.714 21.6211 12.691C21.5731 12.504 21.525 12.318 21.448 12.138L19.469 7.522C18.968 6.353 18.495 5.24899 16.022 5.24899C15.608 5.24899 15.272 5.58499 15.272 5.99899C15.272 6.41299 15.608 6.74899 16.022 6.74899C17.506 6.74899 17.6411 7.065 18.0901 8.113L19.863 12.249H17.0449C15.7949 12.249 14.6361 12.954 13.9431 14.136C13.5421 14.822 12.797 15.249 12 15.249C11.203 15.249 10.4579 14.822 10.0569 14.135C9.36488 12.954 8.20508 12.249 6.95508 12.249H4.13696L5.90991 8.113C6.35891 7.065 6.49403 6.74899 7.97803 6.74899C8.39203 6.74899 8.72803 6.41299 8.72803 5.99899C8.72803 5.58499 8.39203 5.24899 7.97803 5.24899C5.50403 5.24899 5.03201 6.353 4.53101 7.522L2.552 12.137C2.475 12.317 2.42593 12.504 2.37793 12.692C2.36893 12.712 2.36591 12.734 2.35791 12.755C2.34091 12.828 2.32599 12.901 2.31299 12.975C2.31299 12.983 2.30811 12.99 2.30811 12.998C2.30811 13.001 2.30908 13.003 2.30908 13.006C2.27608 13.206 2.24805 13.408 2.24805 13.614V18C2.24805 20.418 3.58005 21.75 5.99805 21.75H17.998C20.416 21.75 21.748 20.418 21.748 18V13.616C21.75 13.41 21.722 13.209 21.689 13.009ZM18 20.25H6C4.423 20.25 3.75 19.577 3.75 18V13.75H6.95508C7.66708 13.75 8.34196 14.178 8.76196 14.894C9.43096 16.039 10.672 16.75 12 16.75C13.328 16.75 14.569 16.039 15.238 14.895C15.658 14.178 16.3329 13.75 17.0449 13.75H20.25V18C20.25 19.577 19.577 20.25 18 20.25ZM9.46997 4.52999C9.17697 4.23699 9.17697 3.76199 9.46997 3.46899L11.47 1.46899C11.539 1.39999 11.6221 1.345 11.7141 1.307C11.8971 1.231 12.1041 1.231 12.2871 1.307C12.3791 1.345 12.462 1.39999 12.531 1.46899L14.531 3.46899C14.824 3.76199 14.824 4.23699 14.531 4.52999C14.385 4.67599 14.193 4.74999 14.001 4.74999C13.809 4.74999 13.6169 4.67699 13.4709 4.52999L12.751 3.80999V9.99999C12.751 10.414 12.415 10.75 12.001 10.75C11.587 10.75 11.251 10.414 11.251 9.99999V3.811L10.531 4.531C10.237 4.823 9.76297 4.82299 9.46997 4.52999Z" fill="currentColor"/>
</svg>

<svg xmlns="http://www.w3.org/2000/svg" width="24" height="24" fill="none"><path fill="currentColor" d="m21.689 13.009.002-.009c0-.009-.005-.016-.005-.025a3.211 3.211 0 0 0-.043-.213c-.008-.024-.012-.048-.022-.071a3.766 3.766 0 0 0-.173-.553l-1.979-4.616c-.501-1.169-.974-2.273-3.447-2.273a.75.75 0 0 0 0 1.5c1.484 0 1.62.316 2.068 1.364l1.773 4.136h-2.818c-1.25 0-2.409.705-3.102 1.887A2.259 2.259 0 0 1 12 15.249a2.258 2.258 0 0 1-1.943-1.114c-.692-1.181-1.852-1.886-3.102-1.886H4.137L5.91 8.113c.449-1.048.584-1.364 2.068-1.364a.75.75 0 0 0 0-1.5c-2.474 0-2.946 1.104-3.447 2.273l-1.979 4.615c-.077.18-.126.367-.174.555-.01.02-.012.042-.02.063a4.08 4.08 0 0 0-.045.22c0 .008-.005.015-.005.023l.001.008c-.033.2-.061.402-.061.608V18c0 2.418 1.332 3.75 3.75 3.75h12c2.418 0 3.75-1.332 3.75-3.75v-4.384a3.507 3.507 0 0 0-.059-.607ZM18 20.25H6c-1.577 0-2.25-.673-2.25-2.25v-4.25h3.205c.712 0 1.387.428 1.807 1.144A3.762 3.762 0 0 0 12 16.75a3.764 3.764 0 0 0 3.238-1.855c.42-.717 1.095-1.145 1.807-1.145h3.205V18c0 1.577-.673 2.25-2.25 2.25ZM9.47 4.53a.75.75 0 0 1 0-1.061l2-2a.75.75 0 0 1 .817-.162.749.749 0 0 1 .244.162l2 2a.75.75 0 0 1-1.06 1.061l-.72-.72V10a.75.75 0 0 1-1.5 0V3.811l-.72.72A.751.751 0 0 1 9.47 4.53Z"/></svg>
